X:1694
L:1/8
M:6/8
K:Bb
 B/c/ | (dB)B (AF)F | (G/F/)(G/A/)(B/G/) (FD)D | (dB)B (cA)F | GAB{d} c2 (B/c/) | (dB)B (AF)F | 
 (G/F/)G/A/B/G/ FDD | (dB)B (cA)F | GBA B2 :: d/e/ | (fd)f g>ab | f(g/f/)(e/d/) (cde) | 
 (fd)f g>ab | a2 g f2 g | (fd)g (ec)f | d(e/d/)(c/B/) A>Bc | (dB)d (cA)F | (GB)A B2 :|

